**kern	**kern
*staff2	*staff1
=1-	=1-
*clefF4	*clefG2
*k[b-e-a-d-g-]	*k[b-e-a-d-g-]
*b-:	*b-:
*M4/4	*M4/4
4r	4r
4r	4r
4r	2an\ 2cc\ 2ff\ 2aan\
4FF/ 4F/	.
=2	=2
4BBB-/ 4BB-/	4b-\ 4dd-\ 4ff\ 4bb-\
*clefG2	*
8.d-/L 8.f/	4r
16d-/Jk 16f/	.
4d-/ 4f/	4r
4d-/ 4f/	8.b-\L
.	16dd-\Jk
=3	=3
4d-/ 4f/	[2ff\
8.d-/L 8.f/	.
16d-/Jk 16f/	.
4d-/ 4f/	12ff\L]
.	12ee-\
.	12dd-\J
4d-/ 4e-/	12cc\L
.	12dd-\
.	12cc\J
=4	=4
4d-/ 4f/	[2b-\
8.d-/L 8.f/	.
16d-/Jk 16f/	.
4d-/ 4f/	8b-\]
.	8r
4d-/ 4f/	8.dd-\L
.	16ff\Jk
=5	=5
!!linebreak:original
4d-/ 4f/	[2bb-\
8.d-/L 8.f/	.
16d-/Jk 16f/	.
4d-/ 4f/	12bb-\L]
.	12aan\
.	12bb-\J
4d-/ 4e-/	12ccc\L
.	12bb-\
.	12aa\J
=6	=6
4d-/ 4f/	[2ff\
8.d-/L 8.f/	.
16d-/Jk 16f/	.
4d-/ 4f/	8ff\]
.	8r
*clefF4	*
4r	4bb-\
=7	=7
4B-\	4gg-\
4c\	4ee-\
4An\	8cc\L
.	8ccc\
4c\	8bbn\
.	8aan\J
=8	=8
4Gn\	4ggn\
4B-\	4een\
4F\	8dd-\L
.	8ddd-\
4A-\	8ccc\
.	8bb-\J
=9	=9
!!linebreak:original
8En\L	2.eeen\
8An\	.
8c\	.
8gn\J	.
4g-\	.
4f\	4ccc\
=10	=10
8en\L	[2aan\
8e-\	.
8dn\	.
8d-\J	.
4BB-/	8aa\L]
.	8bb-\
4r	8aa\
.	8ggn\J
=11	=11
4r	4an/
4AAn/	8.cc\L
.	16een\Jk
4En\ 4c\	4aan\
4An\	4aa\
=12	=12
4r	2dddn\
4AAn/	.
4Dn\ 4c\	2aan\
4AA/	.
=13	=13
!!linebreak:original
4r	4bb-\
4BB-/	8aa-\L
.	8gg-\J
4E-\ 4d-\	8ff\L
.	8ee-\
4BB-/	8dd-\
.	8cc\J
*clefG2	*
=14	=14
4d-/ 4f/	[2b-\
8.d-/L 8.f/	.
16d-/Jk 16f/	.
4d-/ 4f/	8b-\]
.	8r
4d-/ 4f/	12dd-\L
.	12ff\
.	12aa-\J
=15	=15
4d-/ 4f/	8eee--\
.	[4.ddd-\
8.d-/L 8.f/	.
16d-/Jk 16f/	.
4d-/ 4f/	12ddd-\L]
.	12ccc\
.	12bb-\J
4d-/ 4e-/	12aan\L
.	12bb-\
.	12ccc\J
=16	=16
4d-/ 4f/	4bb-\
4d-/ 4f/	4ff\
4dn/ 4f#/	4b-\
*clefF4	*
4r	8.d#/L 8.f#/
.	16d#/Jk 16f#/
=17	=17
!!linebreak:original
1GGG- 1GG-	4e-/ 4gn/
.	8.g-/L 8.b-/
.	16b-/Jk 16ee-/
.	4ee-\ 4gg-\
.	4dd-\ 4ff\
=18	=18
[2AAA-/ [2AA-/	4cc\ 4ee-\
.	8.ee-\L 8.aa-\
.	16aa-\Jk 16ccc\
8AAA-/L] 8AA-/]	4ccc\ 4eee-\
16BBB-/L 16BB-/	.
16CC/J 16C/	.
8DDn/ 8Dn/	4bbn\ 4dddn\
8EEn/J 8En/	.
=19	=19
4FF/ 4F/	4bb-\ 4ddd-\
4F\ 4B-\ 4d-\	8.dd-\L 8.bb-\
.	16ff\Jk 16ddd-\
4FF/ 4F/	8ee-\L 8ccc\
.	8dd-\ 8bb-\
4F\ 4An\ 4e-\	8ee-\ 8ccc\
.	8cc\J 8aan\
=20	=20
4BBB-/ 4BB-/	2dd-\ 2bb-\
*clefG2	*clefF4
8.d-/L 8.f/	.
16d-/Jk 16f/	.
4d-/ 4f/	4r
4d-/ 4f/	12BB-\L
.	12D-\
.	12F\J
=21	=21
!!pagebreak:original
4d-/ 4f/	8B-\
.	[4.F\
8.d-/L 8.f/	.
16d-/Jk 16f/	.
4d-/ 4f/	12F\L]
.	12E-\
.	12D-\J
4d-/ 4e-/	12C/L
.	12D-/
.	12C/J
=22	=22
4d-/ 4f/	12BB-/L
.	12C/
.	12BB-/J
4r	12AAn/L
.	12C/
.	12En/J
2r	12An\L
.	12B-\
.	12A\J
.	12Gn\L
.	12B-\
.	12dn\J
*clefF4	*clefG2
=23	=23
4GGGn/ 4GGn/	12gn\L
.	12b-\
.	12ddn\J
4Gn\ 4B-\ 4dn\	[4ggn\
4FFF/ 4FF/	12gg\L]
.	12ff\
.	12gg\J
4F\ 4An\ 4e-\	12aan\L
.	12gg\
.	12aa\J
=24	=24
!!linebreak:original
4BBB-/ 4BB-/	4ccc-\
4F\ 4B-\ 4d-\	12bb-\L
.	12ddd-\
.	12fff\J
8F\ 8B-\ 8d-\	8bbb-\
8r	8r
[4Gn\ [4Bn\ [4en\	8.ggn\L
.	16een\Jk
=25	=25
[4BBBn/ [4BBn/ 4G/] 4B/] 4e/]	4gn/
4BBB/] 4BB/] [4F#/ [4An/ [4dn/	8.ff#\L
.	16ddn\Jk
[4FFF/ [4FF/ 4F#/] 4A/] 4d/]	4f#/
4FFF/] 4FF/] 4F#/ 4A/ 4c#/	8.ffn\L
.	16dd-\Jk
=26	=26
12r	[2b-\
12FFF/L 12FF/	.
12GGGn/J 12GGn/	.
12AAAn/L 12AAn/	.
12GGG/ 12GG/	.
12AAA/J 12AA/	.
2BBB-/ 2BB-/	8b-\]
.	8r
.	4ff\
=27	=27
!!linebreak:original
12r	[2bb-\
12FFF/L 12FF/	.
12GGGn/J 12GGn/	.
12AAAn/L 12AAn/	.
12GGG/ 12GG/	.
12AAA/J 12AA/	.
8BBB-/ 8BB-/	8bb-\]
8r	8r
*	*clefF4
4r	4G-\
=28	=28
4r	[2c-\
*clefG2	*
8.d-/L 8.f/	.
16d-/Jk 16f/	.
4d-/ 4f/	12c-\L]
.	12G-\
.	12A-\J
4d-/ 4e-/	12B-\L
.	12A-\
.	12B-\J
=29	=29
4r	[2c-\
8.d-/L 8.f/	.
16d-/Jk 16f/	.
4d-/ 4f/	12c-\L]
.	12G-\
.	12A-\J
4d-/ 4e-/	12B-\L
.	12A-\
.	12B-\J
=30	=30
!!linebreak:original
4r	12c-\L
.	12e-\
.	12g-\J
*clefF4	*clefG2
8r	2.cc-\
16G-\LL	.
16G-\JJ	.
8G-\L	.
16G-\L	.
16G-\JJ	.
16G-\LL	.
16G-\	.
16G-\	.
16G-\JJ	.
=31	=31
4.G-\	4r
.	4an\ 4cc\ 4ff\ 4aan\
8F\	.
8En\L	4b-\ 4dd-\ 4ff\ 4bb-\
8F\	.
*	*clefF4
8D-\	4FF/
8C\J	.
=32	=32
4BB-/	4BB-/
4FFF/	4r
4BBBB-/	2r
4r	.
==	==
*-	*-
